svg/fluentui-system-icons/ic_fluent_window_shield_16_filled.svg

<svg width="16" height="16" viewBox="0 0 16 16" fill="none" xmlns="http://www.w3.org/2000/svg">
<path d="M2 4.75C2 3.23122 3.23122 2 4.75 2H11.25C12.7688 2 14 3.23122 14 4.75V6.41688C13.4936 6.28273 12.9981 5.97856 12.5 5.44983V4.99902H3.5V11.25C3.5 11.9404 4.05964 12.5 4.75 12.5H7.39422C7.56995 12.9768 7.80608 13.4219 8.10593 13.8306C8.14809 13.888 8.19132 13.9445 8.2356 14H4.75C3.23122 14 2 12.7688 2 11.25V4.75ZM12.5 6.7818C12.9733 7.12464 13.4726 7.34376 14 7.44126C14.2121 7.48046 14.4287 7.5 14.65 7.5C14.8192 7.5 14.9603 7.62854 14.9929 7.79942L15 7.875V10.1259C15 12.5397 13.8512 14.1806 11.6107 14.9808C11.5389 15.0064 11.4612 15.0064 11.3893 14.9808C10.6969 14.7335 10.1088 14.4059 9.62658 14C9.13025 13.5822 8.74616 13.0815 8.47617 12.5C8.18801 11.8794 8.02981 11.1667 8.00383 10.3647L8 10.1259V7.875C8 7.66789 8.1567 7.5 8.35 7.5C9.42047 7.5 10.3829 7.04177 11.2531 6.10978C11.3899 5.96329 11.6116 5.96342 11.7483 6.11008C11.9914 6.37102 12.2418 6.59481 12.5 6.7818Z" fill="#212121"/>
</svg>

<svg xmlns="http://www.w3.org/2000/svg" width="16" height="16"><path d="M2 4.75A2.75 2.75 0 0 1 4.75 2h6.5A2.75 2.75 0 0 1 14 4.75v1.667c-.506-.134-1.002-.438-1.5-.967v-.451h-9v6.251c0 .69.56 1.25 1.25 1.25h2.644a5.388 5.388 0 0 0 .842 1.5H4.75A2.75 2.75 0 0 1 2 11.25v-6.5Zm10.5 2.032c.473.343.973.562 1.5.66.212.038.429.058.65.058.17 0 .31.129.343.3l.007.075v2.25c0 2.415-1.149 4.056-3.39 4.856a.329.329 0 0 1-.22 0c-.693-.248-1.281-.575-1.763-.981a4.318 4.318 0 0 1-1.15-1.5c-.289-.62-.447-1.333-.473-2.135L8 10.125v-2.25c0-.207.157-.375.35-.375 1.07 0 2.033-.458 2.903-1.39a.334.334 0 0 1 .495 0c.243.261.494.485.752.672Z"/></svg>
